src/GoveeController/Images/GoveeController/Icon.svg

<?xml version="1.0" encoding="UTF-8" standalone="no"?>
<svg
   height="144"
   viewBox="0 0 72 72"
   width="144"
   fill="#000000"
   version="1.1"
   id="svg6"
   sodipodi:docname="Icon.svg"
   inkscape:version="1.1.1 (3bf5ae0d25, 2021-09-20)"
   inkscape:export-filename="C:\git\GoveeController\src\GoveeController\Images\GoveeController\Icon.png"
   inkscape:export-xdpi="48"
   inkscape:export-ydpi="48"
   xmlns:inkscape="http://www.inkscape.org/namespaces/inkscape"
   xmlns:sodipodi="http://sodipodi.sourceforge.net/DTD/sodipodi-0.dtd"
   xmlns="http://www.w3.org/2000/svg"
   xmlns:svg="http://www.w3.org/2000/svg">
  <defs
     id="defs10" />
  <sodipodi:namedview
     id="namedview8"
     pagecolor="#ffffff"
     bordercolor="#666666"
     borderopacity="1.0"
     inkscape:pageshadow="2"
     inkscape:pageopacity="0.0"
     inkscape:pagecheckerboard="0"
     showgrid="false"
     inkscape:zoom="4.546875"
     inkscape:cx="37.498282"
     inkscape:cy="39.257732"
     inkscape:window-width="2560"
     inkscape:window-height="1369"
     inkscape:window-x="1432"
     inkscape:window-y="286"
     inkscape:window-maximized="1"
     inkscape:current-layer="svg6" />
  <rect
     style="fill:#00abe7;fill-opacity:1;stroke:#d8d8d8;stroke-width:0;stroke-linecap:round;stroke-linejoin:round"
     id="rect846"
     width="72"
     height="72"
     x="5e-07"
     y="5e-07" />
  <g
     id="g1302"
     transform="matrix(1.05,0,0,1.05,15,5.9999995)">
    <path
       d="M 0,0 H 24 V 24 H 0 Z"
       fill="none"
       id="path2" />
    <path
       d="m 11.428571,54.285714 c 0,1.571428 1.285715,2.857144 2.857143,2.857144 h 11.428572 c 1.571428,0 2.857143,-1.285716 2.857143,-2.857144 V 51.428571 H 11.428571 Z M 20,0 C 8.971429,0 0,8.971429 0,20 0,26.8 3.4,32.771429 8.571429,36.4 v 6.457142 c 0,1.571429 1.285713,2.857144 2.857142,2.857144 h 17.142858 c 1.571429,0 2.857142,-1.285715 2.857142,-2.857144 V 36.4 C 36.6,32.771429 40,26.8 40,20 40,8.971429 31.028571,0 20,0 Z m 8.142858,31.714286 -2.428572,1.714285 V 40 H 14.285714 V 33.428571 L 11.857142,31.714286 C 8,29.028571 5.714286,24.657142 5.714286,20 c 0,-7.885714 6.4,-14.2857142 14.285714,-14.2857142 7.885714,0 14.285714,6.4000002 14.285714,14.2857142 0,4.657142 -2.285714,9.028571 -6.142856,11.714286 z"
       id="path1135"
       style="fill:#ffffff;fill-opacity:1;stroke:none;stroke-width:2.85714;stroke-opacity:1"
       sodipodi:nodetypes="ssssccssscsssscssccccccsssc" />
    <path
       style="fill:none;stroke:#ffffff;stroke-width:5.25851;stroke-linecap:round;stroke-linejoin:round;stroke-miterlimit:4;stroke-dasharray:none;stroke-opacity:1"
       d="M 28.174006,40.40579 V 21.737179 h -10.05012"
       id="path14414" />
  </g>
</svg>

<?xml version="1.0" encoding="UTF-8"?>
<svg width="144" height="144" fill="#000000" version="1.1" viewBox="0 0 72 72" xmlns="http://www.w3.org/2000/svg">
 <path x="5e-07" y="5e-07" width="72" height="72" d="m7.2 5e-7h57.6a7.2 7.2 45 0 1 7.2 7.2v57.6a7.2 7.2 135 0 1-7.2 7.2h-57.6a7.2 7.2 45 0 1-7.2-7.2v-57.6a7.2 7.2 135 0 1 7.2-7.2z" fill="#00abe7" stroke-width="0"/>
 <g transform="matrix(1.05 0 0 1.05 15 6)">
  <path d="m0 0h24v24h-24z" fill="none"/>
  <path d="m11.429 54.286c0 1.5714 1.2857 2.8571 2.8571 2.8571h11.429c1.5714 0 2.8571-1.2857 2.8571-2.8571v-2.8571h-17.143zm8.5714-54.286c-11.029 0-20 8.9714-20 20 0 6.8 3.4 12.771 8.5714 16.4v6.4571c0 1.5714 1.2857 2.8571 2.8571 2.8571h17.143c1.5714 0 2.8571-1.2857 2.8571-2.8571v-6.4571c5.1714-3.6286 8.5714-9.6 8.5714-16.4 0-11.029-8.9714-20-20-20zm8.1429 31.714-2.4286 1.7143v6.5714h-11.429v-6.5714l-2.4286-1.7143c-3.8571-2.6857-6.1429-7.0571-6.1429-11.714 0-7.8857 6.4-14.286 14.286-14.286s14.286 6.4 14.286 14.286c0 4.6571-2.2857 9.0286-6.1429 11.714z" fill="#fff"/>
  <path d="m28.174 40.406v-18.669h-10.05" fill="none" stroke="#fff" stroke-linecap="round" stroke-linejoin="round" stroke-width="5.2585"/>
 </g>
</svg>
